static/images/netflix_oss_logo.svg

<svg height="52" viewBox="0 0 86 52" width="86" xmlns="http://www.w3.org/2000/svg"><g fill="none" fill-rule="evenodd"><g fill="#fff"><path d="m30 37.5559045s.0542986-2.9227387 3.5565611-3.5559045h23.4434389v4.1438442h-23.0443439v2.7729272h19.4904977s2.9565611.1809045 3.5538462 3.4428392v3.8498743s-.1628959 3.375-3.4696833 3.7905151h-23.5303167v-4.1325377h22.9873303v-2.8068467h-19.4416289s-2.6552037-.0226131-3.5457014-3.4626257z"/><path d="m3.9649211 47.8250628h19.0457332v-9.6925251h-19.0457332zm19.1217208-13.8250628h-19.69705501s-3.38958689.678392-3.38958689 3.6689698v10.526382s.45592522 3.8046482 3.52256508 3.8046482h19.88973762s3.5876973-.7490578 3.5876973-3.8046482v-10.187186s-.390793-4.0081658-3.9133581-4.0081658z"/><path d="m86 38.1438442v-4.1438442h-23.4461538c-3.5022625.6331658-3.5538462 3.5559045-3.5538462 3.5559045v4.0420854c.8904977 3.4400126 3.5429864 3.4626257 3.5429864 3.4626257h19.441629v2.8068467h-22.9846154v4.1325377h23.5303167c3.3040724-.4155151 3.4696833-3.7905151 3.4696833-3.7905151v-3.8498743c-.6-3.2619347-3.5565611-3.4428392-3.5565611-3.4428392h-19.4850679v-2.7729272z"/></g><path d="m86 0-4.5542137 11.4136716 4.5542137 12.5863284c-1.3446828-.1888654-2.6921324-.448203-4.0368152-.6821705l-2.5814589-6.9344609-2.6229615 6.3735024c-1.3031803-.2339675-2.5593243-.3044397-3.8569708-.4933051l4.6206178-10.9908386-4.1723902-11.2727273h3.8569708l2.3573451 6.3030303 2.5095212-6.3030303zm-19.2461183 21.7956307c1.1427037.0704722 2.3573451.1409444 3.5194167.2818887v-22.0775194h-3.5194167zm-9.1305621-4.2875264c2.0391588.0479211 4.1059861.2085976 6.1008756.3269908v3.704017c-3.2067641-.2142354-6.4162951-.422833-9.6922301-.4933052v-21.0458069h3.5913545zm-12.3400931-8.97815363h4.9166693v3.74911913h-4.9166693v8.5102184h-3.5194167v-20.7892882h10.0270173v3.7491191h-6.5076006zm-5.8297256-4.78083157h-3.7241627v17.2487667c-1.2118746 0-2.4237492 0-3.5913544.0479211v-17.2966878h-3.7213958v-3.7491191h11.0369129zm-19.6971128 5.04016913c1.3917191 0 3.5221836-.07047216 4.8004623-.07047216v3.74911913c-1.5936982 0-3.4557795 0-4.8004623.0704721v5.5785765c2.1083298-.1409443 4.2166597-.3269908 6.349891-.4002819v3.6081748l-9.9384786.820296v-22.1451727h9.9384786v3.7491191h-6.349891zm-7.0665017 13.66314307c-1.2782787.2339676-2.5814589.3044397-3.92614173.4933051l-4.1032193-12.5609584v13.0993658c-1.28104554.1409443-2.44588392.3269908-3.66052537.5158562v-24h3.41151004l4.66488721 13.615222v-13.615222h3.61348915z" fill="#ec1b2e"/></g></svg>

<?xml version="1.0" encoding="UTF-8"?>
<svg width="86px" height="52px" viewBox="0 0 86 52" version="1.1" xmlns="http://www.w3.org/2000/svg" xmlns:xlink="http://www.w3.org/1999/xlink">
    <!-- Generator: Sketch 44.1 (41455) - http://www.bohemiancoding.com/sketch -->
    <title>Netflix OSS Logo</title>
    <desc>Created with Sketch.</desc>
    <defs></defs>
    <g id="Home-page" stroke="none" stroke-width="1" fill="none" fill-rule="evenodd">
        <g id="Desktop" transform="translate(-862.000000, -2907.000000)">
            <g id="Footer" transform="translate(0.000000, 2890.000000)">
                <g id="Group-11" transform="translate(862.000000, 17.000000)">
                    <g id="Netflix-OSS-Logo">
                        <path d="M30,37.5559045 C30,37.5559045 30.0542986,34.6331658 33.5565611,34 L57,34 L57,38.1438442 L33.9556561,38.1438442 L33.9556561,40.9167714 L53.4461538,40.9167714 C53.4461538,40.9167714 56.4027149,41.0976759 57,44.3596106 L57,48.2094849 C57,48.2094849 56.8371041,51.5844849 53.5303167,52 L30,52 L30,47.8674623 L52.9873303,47.8674623 L52.9873303,45.0606156 L33.5457014,45.0606156 C33.5457014,45.0606156 30.8904977,45.0380025 30,41.5979899 L30,37.5559045 Z" id="Fill-1" fill="#FFFFFF"></path>
                        <path d="M3.9649211,47.8250628 L23.0106543,47.8250628 L23.0106543,38.1325377 L3.9649211,38.1325377 L3.9649211,47.8250628 Z M23.0866419,34 L3.38958689,34 C3.38958689,34 0,34.678392 0,37.6689698 L0,48.1953518 C0,48.1953518 0.455925219,52 3.52256508,52 L23.4123027,52 C23.4123027,52 27,51.2509422 27,48.1953518 L27,38.0081658 C27,38.0081658 26.609207,34 23.0866419,34 L23.0866419,34 Z" id="Fill-3" fill="#FFFFFF"></path>
                        <path d="M86,38.1438442 L86,34 L62.5538462,34 C59.0515837,34.6331658 59,37.5559045 59,37.5559045 L59,41.5979899 C59.8904977,45.0380025 62.5429864,45.0606156 62.5429864,45.0606156 L81.9846154,45.0606156 L81.9846154,47.8674623 L59,47.8674623 L59,52 L82.5303167,52 C85.8343891,51.5844849 86,48.2094849 86,48.2094849 L86,44.3596106 C85.4,41.0976759 82.4434389,40.9167714 82.4434389,40.9167714 L62.958371,40.9167714 L62.958371,38.1438442 L86,38.1438442 Z" id="Fill-5" fill="#FFFFFF"></path>
                        <path d="M86,0 L81.4457863,11.4136716 L86,24 C84.6553172,23.8111346 83.3078676,23.551797 81.9631848,23.3178295 L79.3817259,16.3833686 L76.7587644,22.756871 C75.4555841,22.5229035 74.1994401,22.4524313 72.9017936,22.2635659 L77.5224114,11.2727273 L73.3500212,0 L77.206992,0 L79.5643371,6.3030303 L82.0738583,0 L86,0 Z M66.7538817,21.7956307 C67.8965854,21.8661029 69.1112268,21.9365751 70.2732984,22.0775194 L70.2732984,0 L66.7538817,0 L66.7538817,21.7956307 Z M57.6233196,17.5081043 C59.6624784,17.5560254 61.7293057,17.7167019 63.7241952,17.8350951 L63.7241952,21.5391121 C60.5174311,21.3248767 57.3079001,21.1162791 54.0319651,21.0458069 L54.0319651,0 L57.6233196,0 L57.6233196,17.5081043 Z M45.2832265,8.52995067 L50.1998958,8.52995067 L50.1998958,12.2790698 L45.2832265,12.2790698 L45.2832265,20.7892882 L41.7638098,20.7892882 L41.7638098,0 L51.7908271,0 L51.7908271,3.7491191 L45.2832265,3.7491191 L45.2832265,8.52995067 Z M39.4535009,3.7491191 L35.7293382,3.7491191 L35.7293382,20.9978858 C34.5174636,20.9978858 33.305589,20.9978858 32.1379838,21.0458069 L32.1379838,3.7491191 L28.416588,3.7491191 L28.416588,0 L39.4535009,0 L39.4535009,3.7491191 Z M19.7563881,8.78928823 C21.1481072,8.78928823 23.2785717,8.71881607 24.5568504,8.71881607 L24.5568504,12.4679352 C22.9631522,12.4679352 21.1010709,12.4679352 19.7563881,12.5384073 L19.7563881,18.1169838 C21.8647179,17.9760395 23.9730478,17.789993 26.1062791,17.7167019 L26.1062791,21.3248767 L16.1678005,22.1451727 L16.1678005,0 L26.1062791,0 L26.1062791,3.7491191 L19.7563881,3.7491191 L19.7563881,8.78928823 Z M12.6898864,22.4524313 C11.4116077,22.6863989 10.1084275,22.756871 8.76374467,22.9457364 L4.66052537,10.384778 L4.66052537,23.4841438 C3.37947983,23.6250881 2.21464145,23.8111346 1,24 L1,0 L4.41151004,0 L9.07639725,13.615222 L9.07639725,0 L12.6898864,0 L12.6898864,22.4524313 Z" id="Fill-6" fill="#EC1B2E"></path>
                    </g>
                </g>
            </g>
        </g>
    </g>
</svg>
